static/img/home/walletapp.svg

<svg fill="none" viewBox=".76 .62 43.45 43.45" xmlns="http://www.w3.org/2000/svg"><rect fill="#000000" height="43.4479" rx="10" width="43.4479" x=".764618" y=".621826"/><path d="m26.4863 15.1336c.8753-.8752 2.3004-.8752 3.1758 0 .8753.8752.8753 2.3 0 3.1752-.5071.507-1.201.7364-1.9055.635-.032-.0053-.0694-.0053-.1014 0-.2082-.0266-.427 0-.6352.0961-.2935.1334-.5017.3789-.6031.6617-.1014.2775-.0961.5924.0374.8752.7526 1.6276.4056 3.5754-.8647 4.8455s-3.2184 1.617-4.8464.8645c-.2935-.1334-.6084-.1387-.8913-.032-.2776.1014-.5124.3095-.6458.5977-.0854.1868-.1175.3789-.1068.571-.0053.0374-.0053.0747 0 .1121.1174.7151-.1174 1.4462-.6298 1.9585-.8753.8751-2.3004.8751-3.1758 0-.427-.427-.6565-.9873-.6565-1.5903 0-.5977.2349-1.1634.6565-1.5903.5071-.507 1.201-.7364 1.9055-.635h.0374c.0747.016.1494.0267.2295.0267.1654 0 .3309-.0321.4857-.1068.2882-.1334.491-.3682.5978-.6403.1067-.2829.1067-.6031-.0321-.8966-.7525-1.6276-.4056-3.5754.8647-4.8455s3.2185-1.6169 4.8464-.8645c.2882.1334.6084.1387.886.0374.2775-.1014.5177-.3096.6512-.5977.1014-.2242.1281-.4643.0907-.6938v-.0053c-.1174-.7151.1174-1.4462.6298-1.9585zm-2.2204 8.9653c.9714-.9713.9714-2.5455 0-3.5168-.9714-.9712-2.5459-.9712-3.5173 0-.9714.9713-.9714 2.5455 0 3.5168.9714.9712 2.5459.9712 3.5173 0zm-1.7773-16.78323c8.2997 0 15.0301 6.72933 15.0301 15.02753s-6.7251 15.0328-15.0301 15.0328-15.0302-6.7293-15.0302-15.0328c0-8.3036 6.7305-15.02753 15.0302-15.02753zm8.0114 11.83093c1.3291-1.3287 1.3291-3.4793 0-4.8081-1.329-1.3288-3.48-1.3288-4.809 0-.491.4909-.8006 1.0993-.9287 1.7343-2.4072-.9072-5.1719-.3308-7.0134 1.5102-1.8414 1.8411-2.4178 4.6054-1.5051 7.0175-.6405.1281-1.249.4376-1.7453.9339-1.3291 1.3288-1.3291 3.4794 0 4.8081 1.329 1.3288 3.48 1.3288 4.809 0 .4964-.4962.8113-1.1153.934-1.7556.7473.2774 1.5265.4162 2.3005.4162 1.7239 0 3.4266-.6671 4.6915-1.9318 1.8308-1.8304 2.4126-4.5787 1.5212-6.9854.6352-.1335 1.249-.443 1.7453-.9393z" fill="#fff"/></svg>

<svg width="45" height="45" viewBox="0 0 45 45" fill="none" xmlns="http://www.w3.org/2000/svg">
<rect x="0.764618" y="0.621826" width="43.4479" height="43.4479" rx="10" fill="#474DFF"/>
<path d="M26.4863 15.1336C27.3616 14.2584 28.7867 14.2584 29.6621 15.1336C30.5374 16.0088 30.5374 17.4336 29.6621 18.3088C29.155 18.8158 28.4611 19.0452 27.7566 18.9438C27.7246 18.9385 27.6872 18.9385 27.6552 18.9438C27.447 18.9172 27.2282 18.9438 27.02 19.0399C26.7265 19.1733 26.5183 19.4188 26.4169 19.7016C26.3155 19.9791 26.3208 20.294 26.4543 20.5768C27.2069 22.2044 26.8599 24.1522 25.5896 25.4223C24.3193 26.6924 22.3712 27.0393 20.7432 26.2868C20.4497 26.1534 20.1348 26.1481 19.8519 26.2548C19.5743 26.3562 19.3395 26.5643 19.2061 26.8525C19.1207 27.0393 19.0886 27.2314 19.0993 27.4235C19.094 27.4609 19.094 27.4982 19.0993 27.5356C19.2167 28.2507 18.9819 28.9818 18.4695 29.4941C17.5942 30.3692 16.1691 30.3692 15.2937 29.4941C14.8667 29.0671 14.6372 28.5068 14.6372 27.9038C14.6372 27.3061 14.8721 26.7404 15.2937 26.3135C15.8008 25.8065 16.4947 25.5771 17.1992 25.6785C17.2099 25.6785 17.2205 25.6785 17.2366 25.6785C17.3113 25.6945 17.386 25.7052 17.4661 25.7052C17.6315 25.7052 17.797 25.6731 17.9518 25.5984C18.24 25.465 18.4428 25.2302 18.5496 24.9581C18.6563 24.6752 18.6563 24.355 18.5175 24.0615C17.765 22.4339 18.1119 20.4861 19.3822 19.216C20.6525 17.9459 22.6007 17.5991 24.2286 18.3515C24.5168 18.4849 24.837 18.4902 25.1146 18.3889C25.3921 18.2875 25.6323 18.0793 25.7658 17.7912C25.8672 17.567 25.8939 17.3269 25.8565 17.0974V17.0921C25.7391 16.377 25.9739 15.6459 26.4863 15.1336ZM24.2659 24.0989C25.2373 23.1276 25.2373 21.5534 24.2659 20.5821C23.2945 19.6109 21.72 19.6109 20.7486 20.5821C19.7772 21.5534 19.7772 23.1276 20.7486 24.0989C21.72 25.0701 23.2945 25.0701 24.2659 24.0989ZM22.4886 7.31567C30.7883 7.31567 37.5187 14.045 37.5187 22.3432C37.5187 30.6414 30.7936 37.376 22.4886 37.376C14.1836 37.376 7.4584 30.6467 7.4584 22.3432C7.4584 14.0396 14.1889 7.31567 22.4886 7.31567ZM30.5 19.1466C31.8291 17.8179 31.8291 15.6673 30.5 14.3385C29.171 13.0097 27.02 13.0097 25.691 14.3385C25.2 14.8294 24.8904 15.4378 24.7623 16.0728C22.3551 15.1656 19.5904 15.742 17.7489 17.583C15.9075 19.4241 15.3311 22.1884 16.2438 24.6005C15.6033 24.7286 14.9948 25.0381 14.4985 25.5344C13.1694 26.8632 13.1694 29.0138 14.4985 30.3425C15.8275 31.6713 17.9785 31.6713 19.3075 30.3425C19.8039 29.8463 20.1188 29.2272 20.2415 28.5869C20.9888 28.8643 21.768 29.0031 22.542 29.0031C24.2659 29.0031 25.9686 28.336 27.2335 27.0713C29.0643 25.2409 29.6461 22.4926 28.7547 20.0859C29.3899 19.9524 30.0037 19.6429 30.5 19.1466Z" fill="white"/>
</svg>
